report_00007_2020-12-11T15:55:29.892Z/server-response-time/comparison/sorted/8_vs_9.svg

<svg width="640" height="500" xmlns="http://www.w3.org/2000/svg" xmlns:xlink="http://www.w3.org/1999/xlink"><path fill="#fff" d="M0 0h640v500H0z"/><defs><path id="d" stroke-width=".222" stroke="currentColor" d="M-1-1h2v2h-2z"/><path id="b" stroke-width=".222" stroke="currentColor" d="M0-1.33l-1.33 2h2.66z"/><path id="f" stroke-width=".222" stroke="currentColor" d="M0 1.33L1.265.411.782-1.067l-1.564-.009-.483 1.487z"/><use xlink:href="#b" id="c" stroke="currentColor" transform="rotate(180)"/><use xlink:href="#d" id="e" stroke="currentColor" transform="rotate(45)"/><circle id="a" stroke-width=".222" stroke="currentColor" cx="0" cy="0" r="1"/></defs><g fill="none" color="#000" stroke="currentColor"><path stroke="#000" d="M53.9 414.8h9m552.1 0h-9"/><text transform="translate(45.6 418.7)" stroke="none" fill="#000" font-family="Arial" font-size="12" text-anchor="end"><tspan>1.4</tspan></text></g><g fill="none" color="#000" stroke="currentColor"><path stroke="#000" d="M53.9 358.1h9m552.1 0h-9"/><text transform="translate(45.6 362)" stroke="none" fill="#000" font-family="Arial" font-size="12" text-anchor="end"><tspan>1.6</tspan></text></g><g fill="none" color="#000" stroke="currentColor"><path stroke="#000" d="M53.9 301.5h9m552.1 0h-9"/><text transform="translate(45.6 305.4)" stroke="none" fill="#000" font-family="Arial" font-size="12" text-anchor="end"><tspan>1.8</tspan></text></g><g fill="none" color="#000" stroke="currentColor"><path stroke="#000" d="M53.9 244.8h9m552.1 0h-9"/><text transform="translate(45.6 248.7)" stroke="none" fill="#000" font-family="Arial" font-size="12" text-anchor="end"><tspan>2</tspan></text></g><g fill="none" color="#000" stroke="currentColor"><path stroke="#000" d="M53.9 188.1h9m552.1 0h-9"/><text transform="translate(45.6 192)" stroke="none" fill="#000" font-family="Arial" font-size="12" text-anchor="end"><tspan>2.2</tspan></text></g><g fill="none" color="#000" stroke="currentColor"><path stroke="#000" d="M53.9 131.5h9m552.1 0h-9"/><text transform="translate(45.6 135.4)" stroke="none" fill="#000" font-family="Arial" font-size="12" text-anchor="end"><tspan>2.4</tspan></text></g><g fill="none" color="#000" stroke="currentColor"><path stroke="#000" d="M53.9 74.8h9m552.1 0h-9"/><text transform="translate(45.6 78.7)" stroke="none" fill="#000" font-family="Arial" font-size="12" text-anchor="end"><tspan>2.6</tspan></text></g><g fill="none" color="#000" stroke="currentColor"><path stroke="#000" d="M53.9 18.1h9m552.1 0h-9"/><text transform="translate(45.6 22)" stroke="none" fill="#000" font-family="Arial" font-size="12" text-anchor="end"><tspan>2.8</tspan></text></g><g fill="none" color="#000" stroke="currentColor"><path stroke="#000" d="M53.9 446v-9m0-418.9v9"/><text transform="translate(53.9 467.9)" stroke="none" fill="#000" font-family="Arial" font-size="12" text-anchor="middle"><tspan>0</tspan></text></g><g fill="none" color="#000" stroke="currentColor"><path stroke="#000" d="M110.6 446v-9m0-418.9v9"/><text transform="translate(110.6 467.9)" stroke="none" fill="#000" font-family="Arial" font-size="12" text-anchor="middle"><tspan>10</tspan></text></g><g fill="none" color="#000" stroke="currentColor"><path stroke="#000" d="M167.3 446v-9m0-418.9v9"/><text transform="translate(167.3 467.9)" stroke="none" fill="#000" font-family="Arial" font-size="12" text-anchor="middle"><tspan>20</tspan></text></g><g fill="none" color="#000" stroke="currentColor"><path stroke="#000" d="M223.9 446v-9m0-418.9v9"/><text transform="translate(223.9 467.9)" stroke="none" fill="#000" font-family="Arial" font-size="12" text-anchor="middle"><tspan>30</tspan></text></g><g fill="none" color="#000" stroke="currentColor"><path stroke="#000" d="M280.6 446v-9m0-418.9v9"/><text transform="translate(280.6 467.9)" stroke="none" fill="#000" font-family="Arial" font-size="12" text-anchor="middle"><tspan>40</tspan></text></g><g fill="none" color="#000" stroke="currentColor"><path stroke="#000" d="M337.3 446v-9m0-418.9v9"/><text transform="translate(337.3 467.9)" stroke="none" fill="#000" font-family="Arial" font-size="12" text-anchor="middle"><tspan>50</tspan></text></g><g fill="none" color="#000" stroke="currentColor"><path stroke="#000" d="M394 446v-9m0-418.9v9"/><text transform="translate(394 467.9)" stroke="none" fill="#000" font-family="Arial" font-size="12" text-anchor="middle"><tspan>60</tspan></text></g><g fill="none" color="#000" stroke="currentColor"><path stroke="#000" d="M450.6 446v-9m0-418.9v9"/><text transform="translate(450.6 467.9)" stroke="none" fill="#000" font-family="Arial" font-size="12" text-anchor="middle"><tspan>70</tspan></text></g><g fill="none" color="#000" stroke="currentColor"><path stroke="#000" d="M507.3 446v-9m0-418.9v9"/><text transform="translate(507.3 467.9)" stroke="none" fill="#000" font-family="Arial" font-size="12" text-anchor="middle"><tspan>80</tspan></text></g><g fill="none" color="#000" stroke="currentColor"><path stroke="#000" d="M564 446v-9m0-418.9v9"/><text transform="translate(564 467.9)" stroke="none" fill="#000" font-family="Arial" font-size="12" text-anchor="middle"><tspan>90</tspan></text></g><path stroke="#000" d="M53.9 18.1V446H615V18.1H53.9z" fill="none" color="#000"/><text transform="translate(275.6 485.9)" stroke="none" fill="#000" font-family="Arial" font-size="12" text-anchor="end" color="#000"><tspan>pages+cached+noexternal+noimg</tspan></text><path stroke="#9400D3" d="M283.9 482h42.2M53.9 437.8h5.7l5.6-3.1 5.7-.3 5.7-.3 5.6-2 5.7-.3 5.7-5.4 5.6-12.1 5.7-1.2 5.7-1.7 5.6-.5 5.7-.6 5.7-.3 5.6-.8 5.7-2.3 5.7-7.1 5.7-7.4 5.6-6.5 5.7-4 5.7-6.2 5.6-2.3 5.7-10.4 5.7-2 5.6-2.6 5.7-.5 5.7-3.4 5.6-2.9 5.7-.5 5.7-2.6 5.6-4.8 5.7-7.9 5.7-.9 5.6-.8h5.7l5.7-4.9 5.6-.2 5.7-2 5.7-2.3 5.6-.8 5.7-.6h5.7l5.6-1.1 5.7-2.9 5.7-.3 5.6-.2 5.7-2.3 5.7-.6 5.6-.5 5.7-.3h5.7l5.7-.3 5.6-1.4 5.7-6.3 5.7-2.5 5.6-1.1 5.7-.3 5.7-.3 5.6-.3 5.7-.6h5.7l5.6-1.1 5.7-.6 5.7-1.1h5.6l5.7-2.8h5.7l5.6-2.6 5.7-3.7h5.7l5.6-1.4 5.7-6.2 5.7-9.9 5.6-7.1 5.7-2.6 5.7-2.8 5.6-4.2h5.7l5.7-2.9 5.6-1.7 5.7-.3 5.7-1.1 5.6-5.4 5.7-9.9 5.7-3.4 5.7-2.8 5.6-7.1 5.7-4.3 5.7-7.6 5.6-.9 5.7-3.7 5.7-11.6 5.6-16.4 5.7-20.4 5.7-15.9 5.6-15 5.7-15 5.7-14.2 5.6-2 5.7-68" fill="none" color="#000"/><text transform="translate(575.1 485.9)" stroke="none" fill="#000" font-family="Arial" font-size="12" text-anchor="end" color="#000"><tspan>pages+cached+noexternal+nocss</tspan></text><path stroke="#009E73" d="M583.4 482h42.2M53.9 432.4l5.7-6.2 5.6-4.3 5.7-.8 5.7-11.1 5.6-24.1 5.7-32.3 5.7-1.1 5.6-1.2 5.7-1.4 5.7-.3 5.6-.5 5.7-.6 5.7-1.1 5.6-.3 5.7-.9 5.7-.8 5.7-1.1 5.6-2 5.7-.9h5.7l5.6-1.4 5.7-.3 5.7-.8 5.6-.6 5.7-.6 5.7-.2 5.6-1.2 5.7-4.5 5.7-1.7h5.6l5.7-.6 5.7-.5h5.6l5.7-.3 5.7-1.2 5.6-1.4 5.7-.5 5.7-1.5 5.6-1.1 5.7-.3 5.7-.3 5.6-.2 5.7-1.2 5.7-.8 5.6-.9 5.7-2.2 5.7-.9h5.6l5.7-.6 5.7-.2 5.7-.3 5.6-.9 5.7-1.4 5.7-.3 5.6-1.1 5.7-2.8 5.7-.9 5.6-.3 5.7-3.7 5.7-.2 5.6-.3 5.7-1.4 5.7-2.6 5.6-.8 5.7-4.6 5.7-.5 5.6-3.2 5.7-.8 5.7-.3 5.6-2 5.7-3.1 5.7-.3 5.6-.8 5.7-4 5.7-1.1 5.6-.3 5.7-2.8 5.7-3.2 5.6-5.3 5.7-2 5.7-.6 5.6-3.1 5.7-1.7 5.7-2.8 5.7-4.9 5.6-8.5 5.7-3.9 5.7-6.5 5.6-5.7 5.7-2.6 5.7-5.1 5.6-.8 5.7-3.7 5.7-5.1 5.6-19.6 5.7-14.4 5.7-2 5.6-28.6 5.7-33.7" fill="none" color="#000"/><g fill="none" color="#000" stroke="currentColor"><path stroke="#000" d="M53.9 18.1V446H615V18.1H53.9z"/></g></svg>

<?xml version="1.0" encoding="utf-8"  standalone="no"?>
<svg 
 width="640" height="500"
 viewBox="0 0 640 500"
 xmlns="http://www.w3.org/2000/svg"
 xmlns:xlink="http://www.w3.org/1999/xlink"
>

<title>Gnuplot</title>
<desc>Produced by GNUPLOT 5.4 patchlevel 0 </desc>

<g id="gnuplot_canvas">

<rect x="0" y="0" width="640" height="500" fill="#ffffff"/>
<defs>

	<circle id='gpDot' r='0.5' stroke-width='0.5' stroke='currentColor'/>
	<path id='gpPt0' stroke-width='0.222' stroke='currentColor' d='M-1,0 h2 M0,-1 v2'/>
	<path id='gpPt1' stroke-width='0.222' stroke='currentColor' d='M-1,-1 L1,1 M1,-1 L-1,1'/>
	<path id='gpPt2' stroke-width='0.222' stroke='currentColor' d='M-1,0 L1,0 M0,-1 L0,1 M-1,-1 L1,1 M-1,1 L1,-1'/>
	<rect id='gpPt3' stroke-width='0.222' stroke='currentColor' x='-1' y='-1' width='2' height='2'/>
	<rect id='gpPt4' stroke-width='0.222' stroke='currentColor' fill='currentColor' x='-1' y='-1' width='2' height='2'/>
	<circle id='gpPt5' stroke-width='0.222' stroke='currentColor' cx='0' cy='0' r='1'/>
	<use xlink:href='#gpPt5' id='gpPt6' fill='currentColor' stroke='none'/>
	<path id='gpPt7' stroke-width='0.222' stroke='currentColor' d='M0,-1.33 L-1.33,0.67 L1.33,0.67 z'/>
	<use xlink:href='#gpPt7' id='gpPt8' fill='currentColor' stroke='none'/>
	<use xlink:href='#gpPt7' id='gpPt9' stroke='currentColor' transform='rotate(180)'/>
	<use xlink:href='#gpPt9' id='gpPt10' fill='currentColor' stroke='none'/>
	<use xlink:href='#gpPt3' id='gpPt11' stroke='currentColor' transform='rotate(45)'/>
	<use xlink:href='#gpPt11' id='gpPt12' fill='currentColor' stroke='none'/>
	<path id='gpPt13' stroke-width='0.222' stroke='currentColor' d='M0,1.330 L1.265,0.411 L0.782,-1.067 L-0.782,-1.076 L-1.265,0.411 z'/>
	<use xlink:href='#gpPt13' id='gpPt14' fill='currentColor' stroke='none'/>
	<filter id='textbox' filterUnits='objectBoundingBox' x='0' y='0' height='1' width='1'>
	  <feFlood flood-color='#FFFFFF' flood-opacity='1' result='bgnd'/>
	  <feComposite in='SourceGraphic' in2='bgnd' operator='atop'/>
	</filter>
	<filter id='greybox' filterUnits='objectBoundingBox' x='0' y='0' height='1' width='1'>
	  <feFlood flood-color='lightgrey' flood-opacity='1' result='grey'/>
	  <feComposite in='SourceGraphic' in2='grey' operator='atop'/>
	</filter>
</defs>
<g fill="none" color="#FFFFFF" stroke="black" stroke-width="1.00" stroke-linecap="butt" stroke-linejoin="miter">
</g>
<g fill="none" color="black" stroke="currentColor" stroke-width="1.00" stroke-linecap="butt" stroke-linejoin="miter">
	<path stroke='black'  d='M53.9,414.8 L62.9,414.8 M615.0,414.8 L606.0,414.8  '/>	<g transform="translate(45.6,418.7)" stroke="none" fill="black" font-family="Arial" font-size="12.00"  text-anchor="end">
		<text><tspan font-family="Arial" > 1.4</tspan></text>
	</g>
</g>
<g fill="none" color="black" stroke="currentColor" stroke-width="1.00" stroke-linecap="butt" stroke-linejoin="miter">
	<path stroke='black'  d='M53.9,358.1 L62.9,358.1 M615.0,358.1 L606.0,358.1  '/>	<g transform="translate(45.6,362.0)" stroke="none" fill="black" font-family="Arial" font-size="12.00"  text-anchor="end">
		<text><tspan font-family="Arial" > 1.6</tspan></text>
	</g>
</g>
<g fill="none" color="black" stroke="currentColor" stroke-width="1.00" stroke-linecap="butt" stroke-linejoin="miter">
	<path stroke='black'  d='M53.9,301.5 L62.9,301.5 M615.0,301.5 L606.0,301.5  '/>	<g transform="translate(45.6,305.4)" stroke="none" fill="black" font-family="Arial" font-size="12.00"  text-anchor="end">
		<text><tspan font-family="Arial" > 1.8</tspan></text>
	</g>
</g>
<g fill="none" color="black" stroke="currentColor" stroke-width="1.00" stroke-linecap="butt" stroke-linejoin="miter">
	<path stroke='black'  d='M53.9,244.8 L62.9,244.8 M615.0,244.8 L606.0,244.8  '/>	<g transform="translate(45.6,248.7)" stroke="none" fill="black" font-family="Arial" font-size="12.00"  text-anchor="end">
		<text><tspan font-family="Arial" > 2</tspan></text>
	</g>
</g>
<g fill="none" color="black" stroke="currentColor" stroke-width="1.00" stroke-linecap="butt" stroke-linejoin="miter">
	<path stroke='black'  d='M53.9,188.1 L62.9,188.1 M615.0,188.1 L606.0,188.1  '/>	<g transform="translate(45.6,192.0)" stroke="none" fill="black" font-family="Arial" font-size="12.00"  text-anchor="end">
		<text><tspan font-family="Arial" > 2.2</tspan></text>
	</g>
</g>
<g fill="none" color="black" stroke="currentColor" stroke-width="1.00" stroke-linecap="butt" stroke-linejoin="miter">
	<path stroke='black'  d='M53.9,131.5 L62.9,131.5 M615.0,131.5 L606.0,131.5  '/>	<g transform="translate(45.6,135.4)" stroke="none" fill="black" font-family="Arial" font-size="12.00"  text-anchor="end">
		<text><tspan font-family="Arial" > 2.4</tspan></text>
	</g>
</g>
<g fill="none" color="black" stroke="currentColor" stroke-width="1.00" stroke-linecap="butt" stroke-linejoin="miter">
	<path stroke='black'  d='M53.9,74.8 L62.9,74.8 M615.0,74.8 L606.0,74.8  '/>	<g transform="translate(45.6,78.7)" stroke="none" fill="black" font-family="Arial" font-size="12.00"  text-anchor="end">
		<text><tspan font-family="Arial" > 2.6</tspan></text>
	</g>
</g>
<g fill="none" color="black" stroke="currentColor" stroke-width="1.00" stroke-linecap="butt" stroke-linejoin="miter">
	<path stroke='black'  d='M53.9,18.1 L62.9,18.1 M615.0,18.1 L606.0,18.1  '/>	<g transform="translate(45.6,22.0)" stroke="none" fill="black" font-family="Arial" font-size="12.00"  text-anchor="end">
		<text><tspan font-family="Arial" > 2.8</tspan></text>
	</g>
</g>
<g fill="none" color="black" stroke="currentColor" stroke-width="1.00" stroke-linecap="butt" stroke-linejoin="miter">
	<path stroke='black'  d='M53.9,446.0 L53.9,437.0 M53.9,18.1 L53.9,27.1  '/>	<g transform="translate(53.9,467.9)" stroke="none" fill="black" font-family="Arial" font-size="12.00"  text-anchor="middle">
		<text><tspan font-family="Arial" > 0</tspan></text>
	</g>
</g>
<g fill="none" color="black" stroke="currentColor" stroke-width="1.00" stroke-linecap="butt" stroke-linejoin="miter">
	<path stroke='black'  d='M110.6,446.0 L110.6,437.0 M110.6,18.1 L110.6,27.1  '/>	<g transform="translate(110.6,467.9)" stroke="none" fill="black" font-family="Arial" font-size="12.00"  text-anchor="middle">
		<text><tspan font-family="Arial" > 10</tspan></text>
	</g>
</g>
<g fill="none" color="black" stroke="currentColor" stroke-width="1.00" stroke-linecap="butt" stroke-linejoin="miter">
	<path stroke='black'  d='M167.3,446.0 L167.3,437.0 M167.3,18.1 L167.3,27.1  '/>	<g transform="translate(167.3,467.9)" stroke="none" fill="black" font-family="Arial" font-size="12.00"  text-anchor="middle">
		<text><tspan font-family="Arial" > 20</tspan></text>
	</g>
</g>
<g fill="none" color="black" stroke="currentColor" stroke-width="1.00" stroke-linecap="butt" stroke-linejoin="miter">
	<path stroke='black'  d='M223.9,446.0 L223.9,437.0 M223.9,18.1 L223.9,27.1  '/>	<g transform="translate(223.9,467.9)" stroke="none" fill="black" font-family="Arial" font-size="12.00"  text-anchor="middle">
		<text><tspan font-family="Arial" > 30</tspan></text>
	</g>
</g>
<g fill="none" color="black" stroke="currentColor" stroke-width="1.00" stroke-linecap="butt" stroke-linejoin="miter">
	<path stroke='black'  d='M280.6,446.0 L280.6,437.0 M280.6,18.1 L280.6,27.1  '/>	<g transform="translate(280.6,467.9)" stroke="none" fill="black" font-family="Arial" font-size="12.00"  text-anchor="middle">
		<text><tspan font-family="Arial" > 40</tspan></text>
	</g>
</g>
<g fill="none" color="black" stroke="currentColor" stroke-width="1.00" stroke-linecap="butt" stroke-linejoin="miter">
	<path stroke='black'  d='M337.3,446.0 L337.3,437.0 M337.3,18.1 L337.3,27.1  '/>	<g transform="translate(337.3,467.9)" stroke="none" fill="black" font-family="Arial" font-size="12.00"  text-anchor="middle">
		<text><tspan font-family="Arial" > 50</tspan></text>
	</g>
</g>
<g fill="none" color="black" stroke="currentColor" stroke-width="1.00" stroke-linecap="butt" stroke-linejoin="miter">
	<path stroke='black'  d='M394.0,446.0 L394.0,437.0 M394.0,18.1 L394.0,27.1  '/>	<g transform="translate(394.0,467.9)" stroke="none" fill="black" font-family="Arial" font-size="12.00"  text-anchor="middle">
		<text><tspan font-family="Arial" > 60</tspan></text>
	</g>
</g>
<g fill="none" color="black" stroke="currentColor" stroke-width="1.00" stroke-linecap="butt" stroke-linejoin="miter">
	<path stroke='black'  d='M450.6,446.0 L450.6,437.0 M450.6,18.1 L450.6,27.1  '/>	<g transform="translate(450.6,467.9)" stroke="none" fill="black" font-family="Arial" font-size="12.00"  text-anchor="middle">
		<text><tspan font-family="Arial" > 70</tspan></text>
	</g>
</g>
<g fill="none" color="black" stroke="currentColor" stroke-width="1.00" stroke-linecap="butt" stroke-linejoin="miter">
	<path stroke='black'  d='M507.3,446.0 L507.3,437.0 M507.3,18.1 L507.3,27.1  '/>	<g transform="translate(507.3,467.9)" stroke="none" fill="black" font-family="Arial" font-size="12.00"  text-anchor="middle">
		<text><tspan font-family="Arial" > 80</tspan></text>
	</g>
</g>
<g fill="none" color="black" stroke="currentColor" stroke-width="1.00" stroke-linecap="butt" stroke-linejoin="miter">
	<path stroke='black'  d='M564.0,446.0 L564.0,437.0 M564.0,18.1 L564.0,27.1  '/>	<g transform="translate(564.0,467.9)" stroke="none" fill="black" font-family="Arial" font-size="12.00"  text-anchor="middle">
		<text><tspan font-family="Arial" > 90</tspan></text>
	</g>
</g>
<g fill="none" color="black" stroke="currentColor" stroke-width="1.00" stroke-linecap="butt" stroke-linejoin="miter">
</g>
<g fill="none" color="black" stroke="currentColor" stroke-width="1.00" stroke-linecap="butt" stroke-linejoin="miter">
	<path stroke='black'  d='M53.9,18.1 L53.9,446.0 L615.0,446.0 L615.0,18.1 L53.9,18.1 Z  '/></g>
<g fill="none" color="black" stroke="currentColor" stroke-width="1.00" stroke-linecap="butt" stroke-linejoin="miter">
</g>
	<g id="gnuplot_plot_1" ><title>pages+cached+noexternal+noimg</title>
<g fill="none" color="black" stroke="currentColor" stroke-width="1.00" stroke-linecap="butt" stroke-linejoin="miter">
	<g transform="translate(275.6,485.9)" stroke="none" fill="black" font-family="Arial" font-size="12.00"  text-anchor="end">
		<text><tspan font-family="Arial" >pages+cached+noexternal+noimg</tspan></text>
	</g>
</g>
<g fill="none" color="black" stroke="currentColor" stroke-width="1.00" stroke-linecap="butt" stroke-linejoin="miter">
	<path stroke='rgb(148,   0, 211)'  d='M283.9,482.0 L326.1,482.0 M53.9,437.8 L59.6,437.8 L65.2,434.7 L70.9,434.4 L76.6,434.1 L82.2,432.1
		L87.9,431.8 L93.6,426.4 L99.2,414.3 L104.9,413.1 L110.6,411.4 L116.2,410.9 L121.9,410.3 L127.6,410.0
		L133.2,409.2 L138.9,406.9 L144.6,399.8 L150.3,392.4 L155.9,385.9 L161.6,381.9 L167.3,375.7 L172.9,373.4
		L178.6,363.0 L184.3,361.0 L189.9,358.4 L195.6,357.9 L201.3,354.5 L206.9,351.6 L212.6,351.1 L218.3,348.5
		L223.9,343.7 L229.6,335.8 L235.3,334.9 L240.9,334.1 L246.6,334.1 L252.3,329.2 L257.9,329.0 L263.6,327.0
		L269.3,324.7 L274.9,323.9 L280.6,323.3 L286.3,323.3 L291.9,322.2 L297.6,319.3 L303.3,319.0 L308.9,318.8
		L314.6,316.5 L320.3,315.9 L325.9,315.4 L331.6,315.1 L337.3,315.1 L343.0,314.8 L348.6,313.4 L354.3,307.1
		L360.0,304.6 L365.6,303.5 L371.3,303.2 L377.0,302.9 L382.6,302.6 L388.3,302.0 L394.0,302.0 L399.6,300.9
		L405.3,300.3 L411.0,299.2 L416.6,299.2 L422.3,296.4 L428.0,296.4 L433.6,293.8 L439.3,290.1 L445.0,290.1
		L450.6,288.7 L456.3,282.5 L462.0,272.6 L467.6,265.5 L473.3,262.9 L479.0,260.1 L484.6,255.9 L490.3,255.9
		L496.0,253.0 L501.6,251.3 L507.3,251.0 L513.0,249.9 L518.6,244.5 L524.3,234.6 L530.0,231.2 L535.7,228.4
		L541.3,221.3 L547.0,217.0 L552.7,209.4 L558.3,208.5 L564.0,204.8 L569.7,193.2 L575.3,176.8 L581.0,156.4
		L586.7,140.5 L592.3,125.5 L598.0,110.5 L603.7,96.3 L609.3,94.3 L615.0,26.3  '/></g>
	</g>
	<g id="gnuplot_plot_2" ><title>pages+cached+noexternal+nocss</title>
<g fill="none" color="black" stroke="currentColor" stroke-width="1.00" stroke-linecap="butt" stroke-linejoin="miter">
	<g transform="translate(575.1,485.9)" stroke="none" fill="black" font-family="Arial" font-size="12.00"  text-anchor="end">
		<text><tspan font-family="Arial" >pages+cached+noexternal+nocss</tspan></text>
	</g>
</g>
<g fill="none" color="black" stroke="currentColor" stroke-width="1.00" stroke-linecap="butt" stroke-linejoin="miter">
	<path stroke='rgb(  0, 158, 115)'  d='M583.4,482.0 L625.6,482.0 M53.9,432.4 L59.6,426.2 L65.2,421.9 L70.9,421.1 L76.6,410.0 L82.2,385.9
		L87.9,353.6 L93.6,352.5 L99.2,351.3 L104.9,349.9 L110.6,349.6 L116.2,349.1 L121.9,348.5 L127.6,347.4
		L133.2,347.1 L138.9,346.2 L144.6,345.4 L150.3,344.3 L155.9,342.3 L161.6,341.4 L167.3,341.4 L172.9,340.0
		L178.6,339.7 L184.3,338.9 L189.9,338.3 L195.6,337.7 L201.3,337.5 L206.9,336.3 L212.6,331.8 L218.3,330.1
		L223.9,330.1 L229.6,329.5 L235.3,329.0 L240.9,329.0 L246.6,328.7 L252.3,327.5 L257.9,326.1 L263.6,325.6
		L269.3,324.1 L274.9,323.0 L280.6,322.7 L286.3,322.4 L291.9,322.2 L297.6,321.0 L303.3,320.2 L308.9,319.3
		L314.6,317.1 L320.3,316.2 L325.9,316.2 L331.6,315.6 L337.3,315.4 L343.0,315.1 L348.6,314.2 L354.3,312.8
		L360.0,312.5 L365.6,311.4 L371.3,308.6 L377.0,307.7 L382.6,307.4 L388.3,303.7 L394.0,303.5 L399.6,303.2
		L405.3,301.8 L411.0,299.2 L416.6,298.4 L422.3,293.8 L428.0,293.3 L433.6,290.1 L439.3,289.3 L445.0,289.0
		L450.6,287.0 L456.3,283.9 L462.0,283.6 L467.6,282.8 L473.3,278.8 L479.0,277.7 L484.6,277.4 L490.3,274.6
		L496.0,271.4 L501.6,266.1 L507.3,264.1 L513.0,263.5 L518.6,260.4 L524.3,258.7 L530.0,255.9 L535.7,251.0
		L541.3,242.5 L547.0,238.6 L552.7,232.1 L558.3,226.4 L564.0,223.8 L569.7,218.7 L575.3,217.9 L581.0,214.2
		L586.7,209.1 L592.3,189.5 L598.0,175.1 L603.7,173.1 L609.3,144.5 L615.0,110.8  '/></g>
	</g>
<g fill="none" color="#FFFFFF" stroke="rgb(  0, 158, 115)" stroke-width="2.00" stroke-linecap="butt" stroke-linejoin="miter">
</g>
<g fill="none" color="black" stroke="currentColor" stroke-width="2.00" stroke-linecap="butt" stroke-linejoin="miter">
</g>
<g fill="none" color="black" stroke="black" stroke-width="1.00" stroke-linecap="butt" stroke-linejoin="miter">
</g>
<g fill="none" color="black" stroke="currentColor" stroke-width="1.00" stroke-linecap="butt" stroke-linejoin="miter">
	<path stroke='black'  d='M53.9,18.1 L53.9,446.0 L615.0,446.0 L615.0,18.1 L53.9,18.1 Z  '/></g>
<g fill="none" color="black" stroke="currentColor" stroke-width="1.00" stroke-linecap="butt" stroke-linejoin="miter">
</g>
</g>
</svg>
